!!!!SEGMENT: pl-wtm--iii-41-637-2--001-003_joteyko-tadeusz--sonatine-g-dur-op-18-no-2-iii-alla-polacca.krn
!!!cenid: 19xx:108
!!!COM: Joteyko, Tadeusz
!!!COM-rismID: pe50046072
!!!CDT: 1872-1932
!!!CNT: Polish
!!!OPR: Sonatine G-dur Op. 18 No. 2
!!!OTL: III. Alla Polacca
!!!OMV: 003
!!!PDT:
!!!AGN: Secular; Sonata
!!!YEC: Copyright 2022 Narodowy Instytut Fryderyka Chopina (https://polishscores.org)
!!!YEM: License CC-BY-4.0 (https://creativecommons.org/licenses/by/4.0)
!!!SMS-siglum: PL-Wtm
!!!SMS-shelfmark: III.41.637-2
!!!SMS-variant:
!!!SMS-altvar:
!!!SMS-shelfwork: 001-003 M
!!!NIFC-rismSourceID: 1001141218
!!!NIFC-rismChildID: 1001141218
!!!NIFC-islandoraID: pl-wtm:20258
!!!URL-pdf-islandora: https://repozytorium.nifc.pl/islandora/object/pl-wtm%3A20258/datastream/PDF/view
!!!URL-scan: https://polish.musicsources.pl/pl/lokalizacje/galeria/druki-muzyczne/17522/5 @EN{Scan on Polish Music Sources Website} @PL{Skany w portalu Dziedzictwo Muzyki Polskiej w otwartym dostępie}
!!!IIIF:
!!!ONB-nifc: UWAGA: części Sonatiny: I. Allegro risoluto, II. Dumka, III. Alla Polacca
!!!AIN: 1 forte
!!!key: G
**kern	**fing	**kern	**fing	**dynam
*part1	*	*part1	*	*part1
*staff2	*	*staff1	*	*
*I"PIANO.	*	*I"PIANO.	*	*
*I'pf	*	*I'pf	*	*
*Ipiano	*	*Ipiano	*	*
*ICklav	*	*ICklav	*	*
*clefF4	*	*clefG2	*	*
*k[f#]	*	*k[f#]	*	*
*G:	*	*G:	*	*
*M3/4	*	*M3/4	*	*
!	!	!LO:TX:b:t=legato	!	!
!	!	!LO:TX:a:t=Moderato.	!	!
.	.	(8qaa/	.	p
4r	.	16gg\LL)	3	.
.	.	16ff#\	.	.
.	.	16gg\	.	.
.	.	16bb\JJ	.	.
=1	=1	=1	=1	=1
*	*below	*	*	*
.	.	(8qbb/	.	.
8G\L 8B	3 5	4.dd\)	.	.
8d\	.	.	.	.
8G\ 8B	.	.	.	.
8d\	.	8ee\L	2	.
8G\ 8B	.	8ff#\	3	.
8d\J	.	8gg\J	4	.
=2	=2	=2	=2	=2
8A\L 8c	2 4	8.ff#\L	2	.
8d\	.	.	.	.
.	.	16aa\Jk	4	.
8A\ 8c	.	4ccc\	5	.
8d\	.	.	.	.
.	.	(8qbb/	.	.
8A\ 8c	.	16aa\LL)	3	.
.	.	16gg#X\	.	.
8d\J	.	16aa\	.	.
.	.	16ccc\JJ	.	.
=3	=3	=3	=3	=3
.	.	(8qccc/	.	.
8F#\L 8c	2 5	4.dd\)	.	.
8d\	.	.	.	.
8A\ 8c	2 4	.	.	.
8d\	.	8ccc\L	4	.
8F#\ 8c	.	8bb\	.	.
8d\J	.	8aa\J	.	.
!!LO:LB:g=original
=4	=4	=4	=4	=4
!	!	!LO:N:vis=8	!	!
8G\L 8B	.	8.gg\L	1	.
8d\	.	.	.	.
.	.	16bb\Jk	2	.
8G\ 8B	.	4ddd\	4	.
8d\	.	.	.	.
.	.	(8qeee/	4	.
8G\ 8B	.	16ddd\LL)	3	.
.	.	16ccc#X\	.	.
8d\J	.	16ddd\	.	.
.	.	16eee\JJ	.	.
=5	=5	=5	=5	=5
(16E\LL	5	4.bb\	1	<
16G#X\	3	.	.	.
16B\	2	.	.	.
16d\JJ	1	.	.	.
8e\L	2	.	.	.
8fn\	1	8ddd\L	4	.
8e\	2	8ccc\	.	.
8d\J)	3	8bb\J	.	[
=6	=6	=6	=6	=6
8A\L 8c	3 5	8.ddd\L	5	.
8e\	.	.	.	.
.	.	16ccc\Jk	.	.
8A\ 8c	.	4aa\	.	.
8e\	.	.	.	.
.	.	(8qbb/	4	.
8A\ 8c	.	16aa\LL)	3	.
.	.	16gg#X\	2	.
8e\J	.	16aa\	1	.
.	.	16bb\JJ	2	.
=7	=7	=7	=7	=7
4C\ 4E 4A	.	16ccc\LL	3	.
.	.	16bb\	.	.
.	.	16ddd\	.	.
.	.	16ccc\JJ	3	.
4r	.	16eee\LL	5	.
.	.	16ddd\	.	.
.	.	16ccc\	.	.
.	.	16bb\JJ	.	.
4r	.	16aa\LL	1	.
.	.	16gg\	4	.
.	.	16ff#\	.	.
.	.	16ee\JJ	.	.
!!LO:LB:g=original
=8	=8	=8	=8	=8
4D\ 4G 4B	.	16dd\LL	1	>
.	.	16dd#X\	2	.
.	.	16ee\	3	.
.	.	16ff#\JJ	4	.
8r	.	((4cc\ 4ff# 4aa	3 5	.
(8D\L	.	.	.	.
8G\J)	.	8b\)) 8gg	4	]
8r	.	8r	.	.
=9	=9	=9	=9	=9
8G\L 8B 8c#X	2 4 5	8aa\L	2	p
8e\	.	[8aa^\J	3	.
8G\ 8A 8c#	.	16aa\LL]	.	.
.	.	16bb\	4	.
8e\	.	16aa\	.	.
.	.	16gg#X\JJ	.	.
8G\ 8A 8c#	.	16aa\LL	1	.
.	.	16bb\	.	.
8e\J	.	16ccc#X\	3	.
.	.	16eee\JJ	5	.
=10	=10	=10	=10	=10
8F#\L 8A	2 4	8aa\L	1	.
8d\	.	[8aa^\J	3	.
8F#\ 8A	.	16aa\LL]	.	.
.	.	16bb\	4	.
8d\	.	16aa\	.	.
.	.	16gg#X\JJ	.	.
8F#\ 8A	.	16aa\LL	1	.
.	.	16ccc#X\	3	.
8d\J	.	16ddd\	1	.
.	.	16fff#\JJ	3	.
=11	=11	=11	=11	=11
8G\L 8B	3 5	(16aaa\LL	5	.
.	.	16ggg\	.	.
8c#X\	.	16fff#\	.	.
.	.	16ggg\JJ	.	.
8G\ 8B	.	8fff#'\L)	2	.
8c#\	.	8aa'\	1	.
8G\ 8B	.	8ccc#X'\	2	.
8c#\J	.	8eee'\J	3	.
!!LO:LB:g=original
=12	=12	=12	=12	=12
8D\L 8F#	3 5	(16bbb\LL	5	.
.	.	16aaa\	.	.
8d\	.	16ggg#X\	.	.
.	.	16aaa\JJ	.	.
8D\ 8F#	.	8fff#'\L)	2	.
8d\	.	8aa\	1	.
8D\ 8F#	.	8ddd\	2	.
8d\J	.	8fff#\J	4	.
=13	=13	=13	=13	=13
8C#X\L	4	16aaa^\LL	5	.
.	.	16aa\	1	.
8BB\	.	16gg#X\	2	.
.	.	16aa\JJ	1	.
8C#\	.	16bb\LL	4	.
.	.	16aa\	3	.
8E\	2	16gg#\	2	.
.	.	16aa\JJ	3	.
8G\	1	16bb\LL	4	.
.	.	16aa\	1	.
8E\J	4	16ccc#X\	2	.
.	.	16eee\JJ	3	.
=14	=14	=14	=14	=14
8D\L	5	16aaa^\LL	5	.
.	.	16aa\	.	.
8E\	.	16gg#X\	.	<
.	.	16aa\JJ	.	.
8F#\	.	16bb\LL	.	.
.	.	16aa\	.	.
8A\	2	16gg#\	.	.
.	.	16aa\JJ	.	.
8d\	1	16bb\LL	4	.
.	.	16aa\	1	.
8A\J	2	16ddd\	2	[
.	.	16fff#\JJ	3	.
=15	=15	=15	=15	=15
4G\	3	16bbb\LL	5	mf
.	.	16aaa\	.	.
.	.	16ggg\	.	.
.	.	16fff#\JJ	.	.
4r	.	16eee\LL	1	.
.	.	16ddd\	4	.
.	.	16ccc#X\	.	.
.	.	16bb\JJ	.	.
(4A\ (4c#X (4g	.	16aa\LL	1	.
.	.	16gg\	4	.
.	.	16ff#\	.	.
.	.	16ee\JJ	.	.
!!LO:LB:g=original
=16	=16	=16	=16	=16
4d\)) 4f#)	1 2	16dd\LL	1	.
.	.	16cc#X\	2	>
.	.	16ee\	3	.
.	.	16dd\JJ	1	.
4r	.	16ff#\LL	3	.
.	.	16ee\	1	.
.	.	16gg\	3	.
.	.	(<16ff#\JJ	2	.
.	.	8qaa/	4	.
4r	.	16gg\LL)	3	.
.	.	16ff#\	.	.
.	.	16gg\	.	.
.	.	16bb\JJ	.	]
=17	=17	=17	=17	=17
.	.	(8qbb/	.	.
8G\L 8B	3 5	4.dd\)	.	.
8e\	.	.	.	.
8d\	.	.	.	.
8c\	.	8ee\L	2	.
8A\	5	8ff#\	3	.
8B\J	3	8gg\J	4	.
=18	=18	=18	=18	=18
8d\L	1	8.ff#\L	2	.
8D\	.	.	.	.
.	.	16aa\Jk	4	.
8F#\	.	4ccc\	5	.
8A\	.	.	.	.
.	.	(8qbb/	4	.
8c\	.	16aa\LL)	3	.
.	.	16gg#X\	.	.
8A\J	2	16aa\	.	.
.	.	(<16ccc\JJ	.	.
=19	=19	=19	=19	=19
.	.	(>8qccc/)	.	.
8F#\L	4	4.dd\)	.	.
8G\	.	.	.	.
8A\	.	.	.	.
8e\	.	8ccc\L	4	.
8d\	2	8bb\	.	.
8c\J	1	8aa\J	.	.
=20	=20	=20	=20	=20
8B\L	2	8.gg\L	1	.
8A\	.	.	.	.
.	.	16bb\Jk	2	.
8G\	4	4ddd\	4	.
8B\	.	.	.	.
.	.	(8qeee/	4	.
8d\	.	16ddd\LL)	3	.
.	.	16ccc#X\	.	.
8B\J	.	16ddd\	.	.
.	.	16eee\JJ	.	.
!!LO:LB:g=original
=21	=21	=21	=21	=21
*^	*	*	*	*
8r	2.G#X\	.	4.bb\	1	.
*	*	*above	*	*	*
8d/L	.	3	.	.	.
8e/	.	.	.	.	.
8fn/	.	.	8ddd\L	.4	.
8e/	.	.	8ccc\	.	.
8d/J	.	.	8bb\J	.	.
*v	*v	*	*	*	*
=22	=22	=22	=22	=22
*	*below	*	*	*
8A/L	5	8.ddd\L	.	.
8B/	.	.	.	.
.	.	16ccc\Jk	.	.
8c/	.	4aa\	.	.
*clefG2	*	*	*	*
8e/	1	.	.	.
.	.	(8qbb/	4	.
8d#X/	3	16aa\LL)	3	.
.	.	16gg#X\	.	.
8e/J	2	16aa\	1	.
.	.	16bb\JJ	2	.
=23	=23	=23	=23	=23
4c/ 4e 4a	.	16ccc\LL	3	.
.	.	16bb\	.	.
.	.	16ddd\	.	.
.	.	16ccc\JJ	.	.
4r	.	16eee\LL	5	.
.	.	16ddd\	.	.
.	.	16ccc\	.	.
.	.	16bb\JJ	.	.
4r	.	16aa\LL	1	.
.	.	16gg\	4	.
.	.	16ff#\	.	.
.	.	16ee\JJ	.	.
=24	=24	=24	=24	=24
4d/ 4g 4b	.	16dd\LL	1	>
.	.	16dd#X\	2	.
.	.	16ee\	3	.
.	.	16ff#\JJ	4	.
8r	.	((4cc\ 4ff# 4aa	1 3 5	.
(8d/L	.	.	.	.
8g/J)	.	8b\)) 8gg	4	.
8r	.	8r	.	]
!!LO:PB:g=original
=25||	=25||	=25||	=25||	=25||
*k[fnb-e-a-]	*	*k[fnb-e-a-]	*	*
!	!	!LO:TX:b:t=leggiero	!	!
!	!	!LO:TX:a:t=(CARILLOM.)	!	!
16e-/LL	5	8gg'\L	1	.
16b-/	1	.	.	.
16g/	3	8bb-'\	.	.
16b-/JJ	.	.	.	.
!	!	!	!	!LO:DY:t=pp(la seconda volta ppp.)
16e-/LL	.	8eee-'\	4	pp
16b-/	.	.	.	.
16g/	.	8ggg'\	.	.
16b-/JJ	.	.	.	.
16e-/LL	.	8eee-'\	.	.
16b-/	.	.	.	.
16g/	.	8bb-'\J	2	.
16b-/JJ	.	.	.	.
=26	=26	=26	=26	=26
16e-/LL	5	(16ccc\LL	3	.
16cc/	1	16bb-\	2	.
16a-/	2	16aa-\	1	.
16cc/JJ	.	16bb-\JJ	.	.
16e-/LL	.	16ccc\LL	.	.
16cc/	.	16bb-\	.	.
16a-/	.	16aa-\	.	.
16cc/JJ	.	16bb-\JJ	.	.
16e-/LL	.	8ccc\)	.	.
16cc/	.	.	.	.
16a-/	.	8r	.	.
16cc/JJ	.	.	.	.
=27	=27	=27	=27	=27
16e-/LL	.	8ff'\L	.	.
16a-/	.	.	.	.
16cc/	.	8aa-'\	.	.
16a-/JJ	.	.	.	.
16e-/LL	.	8ddd'\	4	.
16a-/	.	.	.	.
16cc/	.	8fff'\	.	.
16a-/JJ	.	.	.	.
16e-/LL	.	8ddd\	.	.
16a-/	.	.	.	.
16cc/	.	8aa-'\J	2	.
16a-/JJ	.	.	.	.
=28	=28	=28	=28	=28
16e-/LL	.	(16bb-\LL	3	.
16b-/	.	16aa-\	2	.
16ee-/	.	16gg\	1	.
16b-/JJ	.	16aa-\JJ	.	.
16e-/LL	.	16bb-\LL	.	.
16b-/	.	16aa-\	.	.
16ee-/	.	16gg\	.	.
16b-/JJ	.	16aa-\JJ	.	.
16e-/LL	.	8bb-\)	.	.
16b-/	.	.	.	.
16ee-/	.	8r	.	.
16b-/JJ	.	.	.	.
!!LO:LB:g=orginal
=29	=29	=29	=29	=29
16e-/LL	.	8gg'\L	.	.
16b-/	.	.	.	.
16g/	.	8bb-'\	.	.
16b-/JJ	.	.	.	.
16e-/LL	.	8eee-'\	.	.
16b-/	.	.	.	.
16g/	.	8ggg'\	.	.
16b-/JJ	.	.	.	.
16e-/LL	.	8eee-'\	.	.
16bn/	.	.	.	.
16g/	.	8bbn'\J	1	.
16b/JJ	.	.	.	.
=30	=30	=30	=30	=30
16A-/LL	.	(16ddd\LL	3	.
16c/	.	16ccc\	2	.
16f/	.	16bbn\	1	.
16c/JJ	.	16ccc\JJ	.	.
16A-/LL	.	16ddd\LL	.	.
16c/	.	16ccc\	.	.
16f/	.	16bb\	.	.
16c/JJ	.	16ccc\JJ	.	.
16A-/LL	.	8ddd\)	.	.
16c/	.	.	.	.
16f/	.	8r	.	.
16c/JJ	.	.	.	.
=31	=31	=31	=31	=31
16B-/LL	.	16eee-^\LL	3	.
16e-/	.	16ddd\	2	.
16g/	.	16ccc\	1	.
16e-/JJ	.	16bb-\JJ	3	.
16B-/LL	.	16ddd^\LL	5	.
16e-/	.	16ccc\	4	.
16g/	.	16bb-\	3	.
16e-/JJ	.	16aa-\JJ	2	.
16B-/LL	.	16ccc^\LL	4	.
16e-/	.	16bb-\	.	.
16g/	.	16aa-\	.	.
16e-/JJ	.	16gg\JJ	.	.
=32	=32	=32	=32	=32
4B-/ 4f 4a-	.	16bb-^\LL	4	.
.	.	16aa-\	.	.
.	.	16gg\	.	>
.	.	16ff\JJ	1	.
8r	.	(4ff\	3	.
(8B-/ 8d 8a-L	.	.	.	.
8e-/) 8gJ	1 2	8ee-\)	.	.
8r	.	8r	.	]
!!LO:LB:g=orginal
=33:|!	=33:|!	=33:|!	=33:|!	=33:|!
8G/L	5	8b-\L 8gg	.	f
8Bn/J	.	16dd\L	3	.
.	.	16dd\JJ	2	.
8d/	.	8b-\L 8gg	.	.
8B/J	.	8dd\J	2	.
4G/	.	4b-\ 4gg	.	.
*clefF4	*	*	*	*
=34	=34	=34	=34	=34
8B-X/L	.	8dd\L 8bb-X	.	.
16r	.	16r	.	.
16BB-/Jk	3	16d\Jk 16a- 16b-	.	.
4BB-;/	2	4d;/ 4a- 4b-	.	.
!	!	!LO:TX:b:t=legato	!	!
.	.	(8qccc/	4	p
4r	.	16bb-\LL)	3	.
.	.	16aan\	.	.
.	.	16bb-\	.	.
.	.	16bbn\JJ	4	.
=35	=35	=35	=35	=35
(8BB-\L	5	4.ccc\	5	.
8A-\	2	.	.	.
8d\	1	.	.	.
8A-\	5	8ff\L	1	.
8f\	1	8gg\	.	.
8d\J)	2	8aa-\J	.	.
=36	=36	=36	=36	=36
(8E-\L	5	4.bb-\	4	.
8B-\	.	.	.	.
8e-\	.	.	.	.
8B-\	5	8ee-\L	1	.
8g\	1	8ff\	.	.
8e-\J)	.	8gg\J	.	.
!!LO:LB:g=orginal
=37	=37	=37	=37	=37
(8D\L	5	4.aa-\	.	.
8Bn\	.	.	.	.
8d\	.	.	.	.
8B\	4	8dd\L	1	.
8f\	.	8ee-\	.	.
8d\J)	.	8ff\J	.	.
=38	=38	=38	=38	=38
(8C\L	.	4.gg\	.	<
8G\	.	.	.	.
8c\	.	.	.	.
8G\	5	8cc\L	1	.
8e-\	1	8dd\	2	[
8c\J)	2	8ee-\J	3	.
=39	=39	=39	=39	=39
(8F#X\L	5	4.ee-\	2	.
8An\	4	.	.	.
8c\	.	.	.	.
8A\	.	16ff\LL	3	.
.	.	16ee-\JJ	2	.
8e-\	.	8dd\L	1	.
8A\J)	4	8cc\J	2	.
*clefG2	*	*	*	*
=40	=40	=40	=40	=40
(8G/L	5	8bn\L 8gg	1 5	f
8Bn/	3	16dd\L	3	.
.	.	16dd\JJ	2	.
8d/	.	8b\L 8gg	.	.
8B/J	.	8dd\J	2	.
4G/)	.	4b\ 4gg	.	.
!!LO:LB:g=orginal
=41	=41	=41	=41	=41
(8B-X/L	4	8dd\L 8bb-	.	.
8d/	.	16ff\L	3	.
.	.	16ff\JJ	2	.
8f/	.	8dd\L 8bb-	.	.
8d/J	.	8ff\J	.	.
4B-/)	.	4dd\ 4bb-	.	.
=42	=42	=42	=42	=42
(8d/L	5	8ff#X\L 8ddd	.	.
8f#X/	.	16aan\L	3	.
.	.	16aa\JJ	2	.
8an/	.	8ff#\L 8ddd	.	.
8f#/J	.	8aa\J	.	.
4d/)	.	4ff#\ 4ddd	.	.
=43	=43	=43	=43	=43
[4An/ [4c#X	.	16bbbn\LL	5	.
.	.	16aaan\	.	.
.	.	16ggg\	.	.
.	.	16fff#X\JJ	.	.
8A/] 8c#]	.	16eeen\LL	1	.
.	.	16ddd\	4	.
8r	.	16ccc#X\	.	.
.	.	16bbn\JJ	.	.
4r	.	16aan\LL	1	.
.	.	16gg\	4	.
.	.	16ff#X\	.	.
.	.	16een\JJ	.	.
=44	=44	=44	=44	=44
[4An/ [>4cn [4f#X	.	16dd\LL	1	>
.	.	16cc#X\	2	.
.	.	16een\	3	.
.	.	16dd\JJ	1	.
8A/] 8c] 8f#]	.	16ff#X\LL	3	.
.	.	16ee\	1	.
8r	.	16gg\	3	.
.	.	(<16ff#\JJ	2	.
.	.	8qaan/	4	.
4r	.	16gg\LL)	3	.
.	.	16ff#X\	.	.
.	.	16gg\	.	]
.	.	16bbn\JJ	.	.
*clefF4	*	*	*	*
!!LO:LB:g=orginal
=45||	=45||	=45||	=45||	=45||
*k[nbnenaf#]	*	*k[nbnenaf#]	*	*
.	.	(8qbb/	.	p
8G\L	5	4.dd\)	1	.
8A\	.	.	.	.
8B\	.	.	.	.
8c\	.	8ee\L	2	.
8d\	2	8ff#\	3	.
8e\J	1	8gg\J	4	.
=46	=46	=46	=46	=46
8d\L	3	8.ff#\L	2	.
8c\	4	.	.	.
.	.	16aa\Jk	4	.
8e\	1	4ccc\	5	.
8d\	.	.	.	.
.	.	(8qbb/	4	.
8c\	.	16aa\LL)	3	.
.	.	16gg#X\	.	.
8B\J	4	16aa\	.	.
.	.	16ccc\JJ	.	.
=47	=47	=47	=47	=47
.	.	(8qccc/	.	.
8A\L	1	4.dd\)	.	.
8G\	.	.	.	.
8F#\	3	.	.	.
8E\	1	8ccc\L	4	.
8D\	2	8bb\	.	.
8C\J	3	8aa\J	.	.
=48	=48	=48	=48	=48
16BB\LL	4	8.gg\L	1	<
16D\J	2	.	.	.
8G\J	1	.	.	.
.	.	16bb\Jk	2	.
8B\L	2	4ddd\	4	.
8A#X\	3	.	.	.
.	.	(8qeee/	4	[
8B\	1	16ddd\LL)	3	.
.	.	16ccc#X\	.	.
8G\J	3	16ddd\	.	.
.	.	16eee\JJ	.	.
!!LO:PB:g=orginal
=49	=49	=49	=49	=49
16G#X\LL	4	4.bb\	1	.
16A\	.	.	.	.
16B\	.	.	.	.
16c\JJ	1	.	.	.
8d\L	3	.	.	.
8fn\	1	8ddd\L	4	.
8e\	2	8ccc\	.	.
8d\J	3	8bb\J	.	.
=50	=50	=50	=50	=50
8A\L	5	8.ddd\L	5	.
8e\	.	.	.	.
.	.	16ccc\Jk	.	.
8c\	.	4aa\	.	.
8B\	.	.	.	.
.	.	(8qbb/	4	.
8c\	.	16aa\LL)	3	.
.	.	16gg#X\	.	.
8A\J	.	16aa\	1	.
.	.	16bb\JJ	2	.
=51	=51	=51	=51	=51
4c\	.	16ccc\LL	3	.
.	.	16bb\	.	.
.	.	16ddd\	.	.
.	.	16ccc\JJ	3	.
4r	.	16eee\LL	5	.
.	.	16ddd\	.	.
.	.	16ccc\	.	.
.	.	16bb\JJ	.	.
4r	.	16aa\LL	1	.
.	.	16gg\	4	.
.	.	16ff#\	.	.
.	.	16ee\JJ	.	.
=52	=52	=52	=52	=52
4D\ 4G 4B	.	16dd\LL	1	>
.	.	16dd#X\	2	.
.	.	16ee\	3	.
.	.	16ff#\JJ	4	.
8r	.	((4cc\ 4ff# 4aa	1 3 5	.
8D\L	.	.	.	.
8G\J	.	8b\)) 8gg	4	.
8r	.	8r	.	]
!!LO:LB:g=orginal
=53	=53	=53	=53	=53
8G\L 8A 8c#X	.	8aa\L	2	p
8e\	.	[8aa^\J	3	.
8G\ 8A 8c#	.	16aa\LL]	.	.
.	.	16bb\	4	.
8e\	.	16aa\	.	.
.	.	16gg#X\JJ	.	.
8G\ 8A 8c#	.	16aa\LL	1	.
.	.	16bb\	.	.
8e\J	.	16ccc#X\	3	.
.	.	16eee\JJ	5	.
=54	=54	=54	=54	=54
8F#\L 8A	2 4	8aa\L	1	.
8d\	.	[8aa^\J	3	.
8F#\ 8A	.	16aa\LL]	.	.
.	.	16bb\	4	.
8d\	.	16aa\	.	.
.	.	16gg#X\JJ	.	.
8F#\ 8A	.	16aa\LL	1	.
.	.	16ccc#X\	3	.
8d\J	.	16ddd\	1	.
.	.	16fff#\JJ	3	.
=55	=55	=55	=55	=55
8E\L 8G	3 5	(16aaa\LL	5	.
.	.	16ggg\	.	.
8c#X\	.	16fff#\	.	.
.	.	16ggg\JJ	.	.
8E\ 8G	.	8eee\L)	2	.
8c#\	.	8aa'\	1	.
8E\ 8G	.	8ccc#X'\	2	.
8c#\J	.	8eee'\J	3	.
=56	=56	=56	=56	=56
8D\L 8F#	.	(16bbb\LL	5	.
.	.	16aaa\	.	.
8d\	.	16ggg#X\	.	.
.	.	16aaa\JJ	.	.
8D\ 8F#	.	8fff#'\L)	.	.
8d\	.	8aa'\	.	.
8D\ 8F#	.	8ddd'\	.	.
8d\J	.	8fff#'\J	.	.
!!LO:LB:g=orginal
=57	=57	=57	=57	=57
8C#X/L	4	16aaa^\LL	.	.
.	.	16aa\	1	.
8BB/	.	16gg#X\	2	.
.	.	16aa\JJ	1	.
8C#/	.	16bb\LL	4	.
.	.	16aa\	3	.
8E/	.	16gg#\	2	.
.	.	16aa\JJ	3	.
8G/	.	16bb\LL	4	.
.	.	16aa\	1	.
8E/J	.	16ccc#X\	2	.
.	.	16eee\JJ	3	.
=58	=58	=58	=58	=58
8D\L	5	16aaa^\LL	5	.
.	.	16aa\	.	.
8E\	.	16gg#X\	.	<
.	.	16aa\JJ	.	.
8F#\	.	16bb\LL	.	.
.	.	16aa\	.	.
8A\	.	16gg#\	.	.
.	.	16aa\JJ	.	.
8d\	.	16bb\LL	4	.
.	.	16aa\	1	.
8A\J	.	16ddd\	2	.
.	.	16fff#\JJ	3	[
=59	=59	=59	=59	=59
4G\	.	16bbb^\LL	5	.
.	.	16aaa\	.	.
.	.	16ggg\	.	.
.	.	16fff#\JJ	.	.
4r	.	16eee\LL	1	.
.	.	16ddd\	4	.
.	.	16ccc#X\	.	.
.	.	16bb\JJ	.	.
4A\ 4c#X 4e	.	16aa\LL	1	.
.	.	16gg\	4	.
.	.	16ff#\	.	.
.	.	16ee\JJ	.	.
=60	=60	=60	=60	=60
4d\ 4f#	1 2	16dd\LL	1	.
.	.	16cc#X\	2	.
.	.	16ee\	3	.
.	.	16dd\JJ	1	.
4r	.	16ff#\LL	3	>
.	.	16ee\	1	.
.	.	16gg\	3	.
.	.	16ff#\JJ	2	.
.	.	(8qaa/	4	.
4r	.	16gg\LL)	3	.
.	.	16ff#\	.	.
.	.	16gg\	.	.
.	.	16bb\JJ	.	]
!!LO:LB:g=orginal
=61	=61	=61	=61	=61
.	.	(8qbb/	5	p
8G\L 8B	.	4.dd\)	1	.
8e\	.	.	.	.
8d\	.	.	.	.
8c\	.	8ee\L	2	.
8A\	.	8ff#\	3	.
8B\J	.	8gg\J	4	.
=62	=62	=62	=62	=62
8d\L	.	(16ff#\LL	3	.
.	.	16gg\	1	.
8D\J	.	16aa\	.	.
.	.	16bb\JJ	.	.
(16F#\LL	3	4ccc\)	.	.
16G\	2	.	.	.
16A\	1	.	.	.
16B\JJ	3	.	.	.
.	.	(8qbb/	4	.
8c\L)	2	16aa\LL)	3	.
.	.	16gg#X\	.	.
8A'\J	.	16aa\	.	.
.	.	16ccc\JJ	.	.
=63	=63	=63	=63	=63
.	.	(8qccc/	.	.
8F#\L	.	4.dd\)	.	.
8G\	.	.	.	.
8A\	.	.	.	.
8e\	.	8ccc\L	4	.
8d\	.	8bb\	.	.
8c\J	.	8aa\J	.	.
=64	=64	=64	=64	=64
8B\L	.	(16gg\LL	1	.
.	.	16aa\	2	.
8A\J	.	16bb\	.	.
.	.	16ccc\JJ	.	.
(16G\LL	5	4ddd\)	5	.
16A\	.	.	.	.
16B\	.	.	.	.
16c\JJ	.	.	.	.
.	.	(8qeee/	4	<
8d\L)	.	16ddd\LL)	3	.
.	.	16ccc#X\	.	.
8B'\J	.	16ddd\	.	.
.	.	16eee\JJ	.	[
!!LO:LB:g=orginal
=65	=65	=65	=65	=65
*^	*	*	*	*
8r	2.G#X\	.	4.bb\	1	.
8d/L	.	.	.	.	.
8e/	.	.	.	.	.
8fn/	.	.	8ddd\L	4	.
8e/	.	.	8ccc\	.	.
8d/J	.	.	8bb\J	.	.
*v	*v	*	*	*	*
=66	=66	=66	=66	=66
8A\L	.	8.ddd\L	4	.
8B\J	.	.	.	.
.	.	16ccc\Jk	.	.
8c/L	.	4aa\	.	.
*clefG2	*	*	*	*
8e/	.	.	.	.
.	.	(8qbb/	4	.
8d#X/	.	16aa\LL)	3	.
.	.	16gg#X\	.	.
8e/J	.	16aa\	1	.
.	.	16bb\JJ	2	.
=67	=67	=67	=67	=67
4c/ 4e 4a	.	16ccc\LL	3	.
.	.	16bb\	.	.
.	.	16ddd\	.	.
.	.	16ccc\JJ	.	.
4r	.	16eee\LL	5	.
.	.	16ddd\	.	.
.	.	16ccc\	.	.
.	.	16bb\JJ	.	.
4r	.	16aa\LL	1	.
.	.	16gg\	4	.
.	.	16ff#\	.	.
.	.	16ee\JJ	.	.
=68	=68	=68	=68	=68
4d/ 4g 4b	.	16dd\LL	1	.
.	.	16cc#X\	3	.
.	.	16ee\	5	.
.	.	16dd\JJ	4	.
4r	.	16ccn\LL	3	.
.	.	16b\	.	.
.	.	16a\	.	.
.	.	16b\JJ	2	.
4d/ 4f# 4a	.	16cc\LL	1	.
.	.	16dd\	.	.
.	.	16ee\	.	.
.	.	16ff#\JJ	4	.
!!LO:LB:g=orginal
=69	=69	=69	=69	=69
8g/L	.	8b\L 8dd 8gg	5	f
8e/	.	16b\L 16ee 16gg	.	.
.	.	16b\JJ 16ee 16gg	.	.
8g/	.	8b\L 8dd 8gg	.	.
8e/	.	16b\L 16ee 16gg	.	.
.	.	16b\JJ 16ee 16gg	.	.
8g/	.	8b\L 8dd 8gg	.	.
8e/J	.	16b\L 16ee 16gg	.	.
.	.	16b\JJ 16ee 16gg	.	.
=70	=70	=70	=70	=70
8g/L	.	8b\L 8dd 8gg	.	.
8e/	.	8b\ 8dd 8gg	.	.
8g/	.	8b\ 8dd 8gg	.	.
8e/	.	8b\ 8dd 8gg	.	.
8g/	.	8b\ 8dd 8gg	.	.
8e/J	.	8ee\J 8gg 8bb	.	.
=71	=71	=71	=71	=71
4d/	.	4ff#\ 4aa 4ddd	.	.
4r	.	4r	.	.
*clefF4	*	*	*	*
(16C#X\LL	3	(16c#X/LL	2	.
16D\	.	16d/	1	.
16E\	1	16e/	2	.
16F#\JJ	.	16f#/JJ	3	.
=72	=72	=72	=72	=72
4G\)	2	4g/)	4	.
4r	.	4r	.	.
4r	.	4r	.	.
=73	=73	=73	=73	=73
4GG/ 4G	.	4dd\ 4gg 4bb	.	ff
4r	.	4r	.	.
8.r	.	8.r	.	.
16GG/ 16G	.	16B/ 16d 16g	.	.
=74	=74	=74	=74	=74
2.GG;</ 2.G	.	2.B;/ 2.d 2.g	.	.
==	==	==	==	==
*-	*-	*-	*-	*-
!!!system-decoration: [(s1,s2)]
!!!ENC: Anastazja Marusiak
!!!END: 2023-10-09
!!!RDF**kern: > = above
!!!RDF**kern: < = below
!!!ENC: Leszek Kubiak
!!!END: 2024-01-24
